X:1
T:James Gibb editions
T:Salve Regina - Lotti
T:#
%%score [ 1 2 3 4 ]
L:1/8
Q:1/4=96
M:2/2
K:C
V:1 treble nm="Soprano" snm="S"
V:2 treble nm="Alto" snm="A"
V:3 treble-8 nm="Tenor" snm="T"
V:4 bass nm="Bass" snm="B"
V:1
"^Antonio Lotti\n(1667-1740)""^allegro moderato""^Salve Regina" z8 | z8 | z4 z2!f! d2- | %3
w: ||Sal\-|
 d2"^," c2 d4 | A3 B (c4 | _B4) A4 |[M:2/2] z8 | z4 z2!mf! !>!A2- | A2 GF G2 A2 | (_B4 A3) A | %10
w: * ve, sal-|ve Re- gi\-|* na,||Ma\-|* ter mi- se- ri-|cor\- * di-|
"^," G2 !>!G3 G G2 |!<(! G2 G2 c2!<)! c2 | A2 c2!>(! d4!>)! | G8 | z4!f! c4 | c2 c2 c4 | %16
w: ae. Vi- ta dul-|ce- do, et spes|nos- tra sal-|ve.|Ad|te cla- ma-|
"^," B4 A2 AA | B2 BB (^G2 A2- | A2 ^G2) A4 | z8 | z8 | z2!mf! c2 c4 | _B2 B2 (B2 AG) | %23
w: mus, ex- su- les|fi- li- i E\- *|* * vae.|||ge- men-|tes et flen\- * *|
"^," A4 =B3 B |!<(! B2 B2 c2 _A2!<)! |!>(! G8!>)! | G8 | z8 |!f! A3 A G2 G2 | A4 G4 | A3 A c2 c2 | %31
w: tes in hac|la- cri- ma- rum|val-|le.||E- ia, e- ia|er- go|ad- vo- ca- ta|
 A4"^," G4 | G2 _B2 d2 dd | _B2 B2 c2 B2 | A3 A"^," A2 _B2 | !>!_e4 d4 | (c2 A2) _B4- | %37
w: nos- tra,|il- los tu- os mi-|se- ri- cor- des|o- cu- los ad|nos con-|ver\- * te,|
 B2!>(! (AG) A4!>)! | _B8[Q:1/4=86] | z8 | z4 z2!p! G2- | G2 (F_E) D2 E2 | D4 C4 | %43
w: * con\- * ver-|te.||fru\-|* ctum * ven- tris|tu- i,|
"^tempo Imo"!f![Q:1/4=96] c4 c2 c2 | %44
w: no- bis post|
[Q:1/4=86][Q:1/4=96][Q:1/4=86][Q:1/4=86][Q:1/4=86] _B2 B2 A3 A |"^," G2!p! A2 _B2 A2 | %46
w: hoc ex- si- li-|um o- sten- de.|
[Q:1/4=86] z2!p!"^più lento" c2 d2 c2 | z2 A2 _B2 A2 | z2!<(! A2 G2 G2!<)! | F4 E4 | z2!p! A4 G2- | %51
w: O cle- mens,|O pi- a,|O dul- cis|Vir- go,|O dul\-|
 G2 G2 (G2 FE) | F6 F2 |!<(! (E4 F4!<)! | E8) |!>(! !fermata!^F8!>)! |] %56
w: * cis Vir\- * *|go Ma-|ri\- *||a.|
V:2
 z8 | z8 | z4 z2!f! F2- | F2"^," E2 (F3 E) | D4 z4 | z2 G4"^," F2 |[M:2/2] G4 D3 E | %7
w: ||Sal\-|* ve, sal\- *|ve,|sal- ve,|sal- ve Re-|
 F4 E2!mf! !>!F2- | F2 ED E2 F2 | G6 F2 |"^," E2 !>!E3 E E2 |!<(! D2 D2 G2!<)! G2 | %12
w: gi- na, Ma\-|* ter mi- se- ri-|cor- di-|ae. Vi- ta dul-|ce- do, et spes|
 F2 G2!>(! F4!>)! | E8 | z4!f! G4 | G2 G2 G4 |"^," F4 E2 EE | F2 FF E4- | E4"^," E2!f! E2- | %19
w: nos- tra sal-|ve.|Ad|te cla- ma-|mus, ex- su- les|fi- li- i E\-|* vae. Ad|
 E2 F4 D2- | D2 G4 E2 |"^," F2!mf! E2 A4 | G2 G2 (G2 ^FE) |"^," ^F4 G3 G |!<(! G2 G2 G2 F2!<)! | %25
w: * te su\-|* spi- ra-|mus, ge- men-|tes et flen\- * *|tes in hac|la- cri- ma- rum|
 (F2!>(! _E2 D4)!>)! | =E8 | z8 |!f! F3 F E2 E2 | F4 G4 | F3 F E2 E2 | F4"^," E4 | D2 G2 A2 AA | %33
w: val\- * *|le.||E- ia, e- ia|er- go|ad- vo- ca- ta|nos- tra,|il- los tu- os mi-|
 G2 G2 G2 G2 | ^F3 F"^," F2 G2 | (!>!G2 =F2) F4 | G4 F2 G2 |!>(! F8!>)! | F8 | z8 | z4 z2!p! B,2- | %41
w: se- ri- cor- des|o- cu- los ad|nos * con-|ver- te, con-|ver-|te.||fru\-|
 B,2 (DC) B,2 C2 | (C2 B,2) C4 |!f! G4 G2 G2 | G2 G2 G2 F2 |"^," E2!p! E2 F2 E2 | z2!p! F2 F2 F2 | %47
w: * ctum * ven- tris|tu\- * i,|no- bis post|hoc ex- si- li-|um o- sten- de.|O cle- mens,|
 z2 F2 E2 F2 | z2!<(! F2 F2 E2!<)! | (E2 D2)"^," ^C2!p! E2 | (F6 ED) | E4 E4- | E2 (D^C) D4 | %53
w: O pi- a,|O dul- cis|Vir\- * go, O|dul\- * *|cis Vir\-|* go * Ma-|
!<(! (^C4 D4-!<)! | D2 ^CB, C4) |!>(! !fermata!D8!>)! |] %56
w: ri\- *||a.|
V:3
 z2!f! d4 c2 | d4 A3 B | (c4 _B4) | A8 | z2 (A2 G3 A | _B3 c) d2 d2- | %6
w: Sal- ve,|sal- ve Re-|gi\- *|na,|sal\- * *|* * ve, Ma\-|
[M:2/2][K:treble-8] d2 cc =B2 ^c2 | d3 d"^," ^c4 |!mf! d4 =c2 c2 | _B2 c2 c3 c | %10
w: * ter mi- se- ri-|cor- di- ae,|Ma- ter mi-|se- ri- cor- di-|
"^," c2 !>!c3 c c2 |!<(! =B2 B2 c2!<)! c2 | c2 c2!>(! (c2 B2)!>)! |"^," c4!f! e4 | e2 e2 e4 | %15
w: ae. Vi- ta dul-|ce- do, et spes|nos- tra sal\- *|ve. Ad|te cla- ma-|
 e2 e2 e4 |"^," d4 c2 cc | d2 dd (d2 c2 | B4 ^c4 |!f! A4 _B4 | G2 G2 c4 |"^," A2!mf! c2 d4 | %22
w: mus, cla- ma-|mus, ex- su- les|fi- li- i E\- *|* vae.|Ad te|su- spi- ra-|mus, ge- men-|
 d2 ^c2 d4 |"^," d4 d3 d |!<(! d2 d2 _e2 c2!<)! | B2!>(! c4 B2)!>)! | c4!f! c3 c | B2 B2 c4- | %28
w: tes et flen-|tes in hac|la- cri- ma- rum|val\- * *|le. E- ia,|e- ia er\-|
 c4 c4 | c3 c e2 c2 | A4 G4 | F2 A2 (c4 | _B4 A2 d2 | d2 d2 _e2 d2 | d3 d"^," d2 d2 | !>!c4 d4 | %36
w: * go|ad- vo- ca- ta|nos- tra,|il- los tu\-|* os mi-|se- ri- cor- des|o- cu- los ad|nos con-|
 (_e2 c2) d2 c2 |!>(! c8!>)! |"^," d4!p!"^più lento" d4 | d2 c_B) A2 B2 | A4 G4- | G4 z4 | z8 | %43
w: ver\- * te, con-|ver-|te. Et|Je- sum * be- ne-|di- ctum,|||
!f! !courtesy!=e4 e2 e2 | e2 c2 c3 c |"^," c2!p! c2 d2 c2 | z2!p! c2 _B2 c2 | z2 c2 _B2 c2 | %48
w: no- bis post|hoc ex- si- li-|um o- sten- de.|O cle- mens,|O pi- a,|
 z2!<(! c2 _B2 B2!<)! | A4"^," A4 |!p! ^c4 d4 | (^c2 A2) _B4 |"^," A6 A2 |!<(! A8-!<)! | A8 | %55
w: O dul- cis|Vir- go,|O dul-|cis * Vir-|go Ma-|ri\-||
!>(! !fermata!A8!>)! |] %56
w: a.|
V:4
 z8 | z8 | z2!f! A,4 G,2 | A,4 D,3 E, | F,4 E,3 F, | G,4 D,4 |[M:2/2] E,2 E,F, G,2 G,2 | %7
w: ||Sal- ve,|sal- ve Re-|gi- na, Re-|gi- na,|Ma- ter mi- se- ri-|
 D,2 D,2 A,4 |!mf! _B,6 A,A, | G,2 E,2 F,3 F, |"^," C,2 !>!C,3 C, C,2 |!<(! G,2 G,2 E,2!<)! E,2 | %12
w: cor- di- ae,|Ma- ter mi-|se- ri- cor- di-|ae. Vi- ta dul-|ce- do, et spes|
 F,2 E,2!>(! D,4!>)! |"^," C,4!f! C4 | C2 C2 C4 | C,2 C2 C4 |"^," ^G,4 A,2 A,A, | D,2 D,D, E,4- | %18
w: nos- tra sal-|ve. Ad|te cla- ma-|mus, cla- ma-|mus, ex- su- les|fi- li- i E\-|
 E,4 A,,4 | z8 | z8 | z2!mf! A,2 ^F,4 | G,2 G,2 D,4 |"^," D,4 G,3 G, |!<(! G,2 F,2 _E,2 F,2!<)! | %25
w: * vae.|||ge- men-|tes et flen-|tes in hac|la- cri- ma- rum|
!>(! G,8!>)! | C,8 |!f! G,3 G, E,2 E,2 | F,4 C,4 | F,3 F, C2 E,2 | F,4 C,4 | z4 C,2 E,2 | %32
w: val-|le.|E- ia, e- ia|er- go|ad- vo- ca- ta|nos- tra,|il- los|
 G,4 ^F,2 F,2 | G,2 G,2 C,2 G,2 | D,3 D,"^," D,2 G,2 | (!>!C2 A,2) _B,4 | _E,4 D,2 E,2 | %37
w: tu- os mi-|se- ri- cor- des|o- cu- los ad|nos * con-|ver- te, con-|
!>(! F,8!>)! |"^," _B,,4!p! _B,4 | _B,2 (A,G,) ^F,2 G,2 | (G,2 ^F,2) G,4- | G,4 z4 | z8 | %43
w: ver-|te. Et|Je- sum * be- ne-|di\- * ctum,|||
!f! C4 C2 C2 | =E,2 E,2 F,3 F, | C,4 z4 | z2!p! A,2 _B,2 A,2 | z2 F,2 G,2 F,2 | %48
w: no- bis post|hoc ex- si- li-|um.|O cle- mens,|O pi- a,|
 z2!<(! F,2 ^C,2 C,2!<)! | D,4"^," A,,4 |!p! A,4 _B,4 | A,4 ^C,4 |"^," D,6 D,2 |!<(! A,,8-!<)! | %54
w: O dul- cis|Vir- go|O dul-|cis Vir-|go Ma-|ri\-|
 A,,8 |!>(! !fermata!D,8!>)! |] %56
w: |a.|

